X:1
T:Fanny Power
T:Fanny Power
T:Carolan
C:Carolan
L:1/8
M:6/8
K:D
V:1 treble 
V:1
"^Distinctly and Gracefully" D2 A, .D(EF) | (G2 F) (E2 D) | (C2 B,) .A,(B,A,) | (C2 D) (E2 G) | %4
 .F(ED) .F(GA) | (B2 E) (E2 D) |{D} .C(B,A,) .A,(B,C) | [A,D]3 [A,D]2 z :: .A(F/G/).A .A(F/G/).A | %9
 (.D2 .D .D2 .D) | .B(G/A/).B .B(G/A/).B | (.E2 .E .E2 .E) | .F(GA) .B(cd) | .c(de) .A(BA) | %14
{G} .F(ED) .E(FE) | [A,D]3 [A,D]2 z :| %16

